X: 8042
T: Connie The Sailor
R: jig
M: 6/8
K: Dmajor
FAA Adc|A2G EAD|EFG FGA|FAF GED|
~F3 Adc|A2G EAd|cBc ABG|FdB d2z:|
|:fed dBd|fed dBd|fed efd|cAA A2B|
GAB efg|fed fed|cBc ABG|FdB d2z:|

